X:2844
T:A tisket a tasket
C:anon.
O:USA?
Z:Transcribed by Frank Nordberg - http://www.musicaviva.com
F:http://abc.musicaviva.com/tunes/usa/a-tisket-a-tasket.abc
M:C
L:1/4
K:C
G|G2EF|G2EF|GGEA|G2EE|
FFDE|FFDF|GFED|E3|]
W:
W:
W:  From Musica Viva - http://www.musicaviva.com
W:  the Internet center for free sheet music downloads.


